X:1
T:O vos omnes
T:O vos omnes
T:Tomás Luis de Victoria
C:Tomás Luis de Victoria
%%score [ 1 2 3 4 ]
L:1/8
M:2/2
K:G
V:1 treble nm="Soprano" snm="S."
V:2 treble nm="Alto" snm="A."
V:3 treble-8 nm="Tenor" snm="T."
V:4 bass nm="Bass" snm="B."
V:1
 z8 | E8 | ^G4 A4- | A2 G2 =F4- | F4 E4- | E4 z2 E2- | E2 E2 G4 | A6 A2 | B8 | E8 | z8 | %11
w: |O|vos o-||* mnes|* qui|* tran- si-|tis per|vi-|am||
 z2 E2 A4- | A2 A2 A4 | A4 ^G4 | A8 | ^G4 z4 | z8 | z4 A4- | A4 G4 | =F8 | E4 z2 E2- | %21
w: at- ten|* di- te,|et vi-|de-|te:||Si|* est|do-|los si|
 E2 DC D2 D2 | E8 | z2 E4 E2 | E2 E2 =F2 E2- | E2 D2 E2 ^G2- | G2 ^G2 G2 G2 | A8 | G8 | z2 E4 E2 | %30
w: * * * * mi-|lis|sic- ut|do- lor me *|* * us, sic|* ut do- lor|me-|us,|sic- ut|
 E2 E2 =F4- | F4 E4- | E4 z4 | A4 c4- | c2 B2 B4- | B4 z2 B2- | B2 B2 B2 B2 | A6 A2 | ^G4 z4 | c8 | %40
w: do- lor me|* us.||At- ten-|di * te|* u|* ni- ver- si|po- pu-|li|et|
 B4 A3 B | c4 d4 | G8 | z8 | z4 B4- | B4 c4 | B2 B4 A2 | B2 G4 c2- | c2 A4 B2- | BA A4 ^G2 | %50
w: vi- de *||te||do|* lo-|rem me *|um, do- lo|* rem me||
 A4 z4 | z8 | z4 A4- | A4 G4 | =F8 | E4 z2 E2- | E2 DC D2 D2 | E8 | z2 E4 E2 | E2 E2 =F2 E2- | %60
w: um.||Si|* est|do-|lor si|* * * * mi-|lis|sic- ut|do- lor me- *|
 E2 D2 E2 ^G2- | G2 ^G2 G2 G2 | A8 | G8 | z2 E4 E2 | E2 E2 =F4- | F4 E4- | E8- | E8 |] %69
w: * * us, sic-|* ut do- lor|me-|us,|sic- ut|do- lor me-|* us.|||
V:2
 z4 A,4- | A,4 E4- | E4 C4- | C4 D4- | D4 G,4 | G6 G2 | G4 E2 G2- | G2 F4 E2 | D8 | ^C8 | z4 E4 | %11
w: O|* vos|* o-||* mnes,|qui tran-|si- tis per||vi-|am|at-|
 E6 E2 | E8 | =F4 E2 E2- | E2 DC D4 | E4 z4 | z4 E4- | E4 D4 | E8 | A,4 D3 C | B,2 A,4 ^G,2 | %21
w: ten- di-|te,|et vi- de-||te:|Si|* est|do-|lor si- *||
 A,6 A,2 | B,4 z2 B,2- | B,2 B,2 B,2 B,2 | C6 B,2 | A,4 B,4 | z2 E4 E2 | E2 E2 =F4 | E2 DC D4 | %29
w: * mi-|lis sic|* ut do- lor|me- *|* us,|sic- ut|do- lor me-||
 E2 C4 C2 | B,2 ^C2 D4- | D4 B,4- | B,4 z4 | z4 E4 | G6 F2 | F8 | G3 G G2 G2 | =F2 E4 D2 | E4 z4 | %39
w: us, sic- ut|do- lor me-|* us||At-|ten- di-|te,|u- ni- ver- si|po- * pu-|li|
 E8- | E4 C4- | C4 =F4 | E4 z2 E2 | =F6 E2 | D4 E4 | z2 E2 G4- | G2 =F2 E4 | E4 z2 E2 | C4 =F4 | %49
w: et|* vi-|* de-|te do-|lo- rem|me- um|do- lo-|* rem me-|um, do-|lo- rem|
 E8 | ^C4 z4 | z4 E4- | E4 D4 | E8 | A,4 D3 C | B,2 A,4 ^G,2 | A,6 A,2 | B,4 z2 B,2- | %58
w: me-|um|Si|* est|do-|lor si- *||* mi-|lis sic|
 B,2 B,2 B,2 B,2 | C6 B,2 | A,4 B,4 | z2 E4 E2 | E2 E2 =F4 | E2 DC D4 | E2 C4 C2 | B,2 ^C2 D4- | %66
w: * ut do- lor|me- *|* us,|sic- ut|do- lor me-||us, sic- ut|do- lor me-|
 D4 B,4 | B,4 ^C4- | C8 |] %69
w: |* us.||
V:3
 A8 | c8 | B4 A3 G | AB c4 BA | B4 c4- | c4 B4- | B2 B2 B4 | d2 DE FG A2- | A2 ^GF G4 | A8 | %10
w: O||vos o- *||* mnes,|* qui|* tran- si-|ti per- * * * *|* * * vi-|am|
 z4 B4 | c6 c2 | c8 | d4 B2 c2- | cBAG A4 | B4 z4 | c8 | B4 A4 | B8 | d3 c B2 A2 | ^G2 c2 B2 c2- | %21
w: at-|ten- di-|te,|et vi- de-||te:|Si|est do-|lor|si- * * mi-|lis, si- * *|
 c2 B2 A4- | A2 ^GF G2 E2- | E2 E2 E2 E2 | A6 G2 | =F4 E2 B2- | B2 B2 B2 B2 | c3 B c2 d2- | %28
w: * mi- lis,|* * * * sic|* ut do- lor|me- *|* us, sic-|* ut do- lor|me- * * *|
 dc c4 B2 | c4 z2 A2- | A2 ^G2 A2 A2 | B2 A4 ^GF | ^G4 z4 | z4 A4 | e6 ^d2 | ^d8 | e3 e e2 d2 | %37
w: |us sic-|* ut do- lor|me- * * *|us.|At-|ten- di-|te,|u- ni- ver- si|
 c3 B A2 A2 | B4 z4 | A8 | ^G4 A3 G | AB c4 B2 | c4 B4 | c6 B2 | A6 ^GF | G2 E2 e4- | e2 d2 c4 | %47
w: po- * * pu-|li|et|vi- de- *||te do-|lo- rem|me- * *|um, do- lo-|* rem me-|
 B2 B2 e4 | A4 d4 | c2 BA B4 | A4 z4 | c8 | B4 A4 | B8 | d3 c B2 A2 | ^G2 c2 B2 c2- | c2 B2 A4- | %57
w: um, do- lo-|rem me-||um.|Si|est do-|lor|si- * * mi-|lis, si- * *|* mi- lis,|
 A2 ^GF G2 E2- | E2 E2 E2 E2 | A6 G2 | =F4 E2 B2- | B2 B2 B2 B2 | c3 B c2 d2- | dc c4 B2 | %64
w: * * * * sic-|* ut do- lor|me- *|* us, sic-|* ut do- lor|me- * * *||
 c4 z2 A2- | A2 ^G2 A2 A2 | B2 A4 ^GF | ^G4 A4- | A8 |] %69
w: us sic-|* ut do- lor|me- * * *|* us.||
V:4
 z8 | A,,8 | E,4 =F,4- | F,2 E,2 D,4- | D,4 C,4- | C,4 E,4- | E,2 E,2 E,4 | D,6 C,2 | B,,8 | A,,8 | %10
w: |O|vos o-||* mnes,|* qui|* tran- si-|tis per|vi-|am|
 z4 E,4 | A,6 A,2 | A,8 | D,4 E,4 | =F,8 | E,4 z4 | A,8 | G,4 =F,4 | E,8 | D,8 | E,8 | =F,6 F,2 | %22
w: at-|ten- di-|te,|et vi-|de-|te:|Si|est do-|lor|si-||* mi-|
 E,8 | z8 | z8 | z4 z2 E,2- | E,2 E,2 E,2 E,2 | A,4 =F,4 | G,8 | C,2 A,,4 A,,2 | E,2 E,2 D,4- | %31
w: lis|||sic-|* ut do- lor|me- *||us, sic- ut|do- lor me-|
 D,4 E,4- | E,4 z4 | z8 | E,4 B,4- | B,2 B,2 B,4 | E,3 E, E,2 G,2 | A,3 G, =F,2 F,2 | E,4 z4 | %39
w: * us.|||At- ten-|* di- te,|u- ni- ver- si|po- * * pu-|li|
 A,,8 | E,4 F,4- | F,2 E,2 D,4 | C,4 E,4 | A,6 G,2 | =F,4 E,4- | E,4 z4 | z4 z2 A,,2 | E,4 C,4 | %48
w: et|vi- de-||te do-|lo- rem|me- um||do-|lo- rem|
 =F,4 D,4 | E,8 | A,,4 z4 | A,8 | G,4 =F,4 | E,8 | D,8 | E,8 | =F,6 F,2 | E,8 | z8 | z8 | %60
w: me- *||um.|Si|est do-|lor|si-||* mi-|lis|||
 z4 z2 E,2- | E,2 E,2 E,2 E,2 | A,4 =F,4 | G,8 | C,2 A,,4 A,,2 | E,2 E,2 D,4- | D,4 E,4- | %67
w: sic|* ut do- lor|me- *||us, sic- ut|do- lor me||
 E,4 A,,4- | A,,8 |] %69
w: * us.||

